X:1
T:Abbey Wood, 87.87 D
T:Abbey Wood, 87.87 D
T:Winfield Scott Weeden, 1898
T:Public Domain Courtesy of the Cyber Hymnal™
C:Winfield Scott Weeden, 1898
Z:Public Domain
Z:Courtesy of the Cyber Hymnal™
%%score ( 1 2 ) ( 3 4 )
L:1/8
Q:1/4=90
M:3/4
K:Bb
V:1 treble 
V:2 treble 
V:3 bass 
V:4 bass 
V:1
 [DF][B,D] | [EG]2 [DF]2 [DF][B,D] | [EG]2 [EF]2 [EA][DB] | [EF]2 [EF]2 [EG][EF] | %4
 [DF]4 [DF][B,D] | [^CG]2 [DF]2 [DF][B,D] | [^CG]2 [DF]2 [=CA][B,B] | [=Ec]2 [EG]2 [DB][CA] | %8
 [A,F]4 BA | G2 G2 [EB][EG] | [DF]2 [B,D]2 FF | B2 d2 [=Ec][GB] | [Fc]4 Bc | d2 d2 [Ge][Fd] | %14
 [GB]2 !fermata![EG]2 [^CG][CG] | [DF]2 [DF]2 F[EF] | [DF]4 |] %17
V:2
 x2 | x6 | x6 | x6 | x6 | x6 | x6 | x6 | x6 | (EE) (EE) x2 | x6 | (DD) (FF) x2 | x6 | %13
 (DD) (FF) x2 | x6 | x4 (C/D/) x | x4 |] %17
V:3
 [B,,B,][B,,F,] | [B,,B,]2 [B,,B,]2 [B,,B,][B,,F,] | [C,A,]2 [F,A,]2 [F,C][G,B,] | %3
 [A,C]2 [B,D]2 [E,B,][F,A,] | [B,,B,]4 [B,,B,][B,,F,] | [B,,=E,]2 [B,,F,]2 [B,,B,][B,,F,] | %6
 [B,,=E,]2 [B,,F,]2 [_E,F,][D,F,] | [C,G,]2 [C,C]2 [C,=E,][C,E,] | [F,,F,]4 z2 | %9
 ([E,B,][E,B,]) ([E,B,][E,B,]) [E,G,][E,B,] | [B,,B,]2 [B,,F,]2 z2 | %11
 ([B,,F,][B,,F,]) ([B,,B,][B,,B,]) [C,G,][=E,C] | [F,A,]4 z2 | %13
 ([B,,F,][B,,F,]) ([D,B,][F,B,]) B,B, | [E,B,]2 !fermata![E,B,]2 [E,B,][=E,B,] | %15
 [F,B,]2 [F,B,]2 (A,/B,/)[F,C] | [B,,B,]4 |] %17
V:4
 x2 | x6 | x6 | x6 | x6 | x6 | x6 | x6 | x6 | x6 | x6 | x6 | x6 | x4 B,B, | x6 | x4 F, x | x4 |] %17

